static/assets/images/exchanges/retro.svg

<svg width="255" height="256" viewBox="0 0 255 256" fill="none" xmlns="http://www.w3.org/2000/svg">
<path d="M0.00289566 128C0.00289566 57.309 57.0881 0 127.504 0C197.921 0 255 57.3061 255 128C255 198.694 197.918 256 127.501 256C57.0823 256 0 198.694 0 128H0.00289566ZM27.8955 128C27.8955 183.228 72.4923 227.998 127.501 227.998C182.516 227.998 227.11 183.228 227.11 128.003C227.11 72.7717 182.516 28.0021 127.504 28.0021C72.4894 28.0021 27.8984 72.7717 27.8984 128H27.8955Z" fill="#F0E7D8"/>
<path d="M125.916 159.916L116.451 142.21L115.493 142.37V184.548H73.16V71.8622H145.322C170.979 71.8622 188.135 86.5112 188.135 106.472C188.135 124.664 174.341 139.313 150.934 139.313C146.923 139.313 143.237 138.993 139.867 138.351L139.224 139.482C148.365 147.209 154.62 149.621 162.316 149.621C171.941 149.621 181.238 145.593 185.891 139.479L191.187 182.144C185.891 184.722 177.393 186.974 171.947 186.974C150.459 186.974 137.316 181.825 125.925 159.934L125.916 159.916ZM149.324 116.292C149.324 109.527 144.031 105.668 136.332 105.668H115.484V122.252C123.18 125.794 128.795 127.401 135.365 127.401C143.061 127.401 149.318 123.057 149.318 116.292H149.324Z" fill="#F0E7D8"/>
</svg>

<svg xmlns="http://www.w3.org/2000/svg" fill="none" viewBox="0 0 255 256"><path fill="#F0E7D8" d="M.003 128C.003 57.309 57.088 0 127.504 0 197.921 0 255 57.306 255 128s-57.082 128-127.499 128C57.082 256 0 198.694 0 128zm27.893 0c0 55.228 44.596 99.998 99.605 99.998 55.015 0 99.609-44.77 99.609-99.995 0-55.231-44.594-100-99.606-100-55.015 0-99.606 44.769-99.606 99.997z"/><path fill="#F0E7D8" d="m125.916 159.916-9.465-17.706-.958.16v42.178H73.16V71.862h72.162c25.657 0 42.813 14.65 42.813 34.61 0 18.192-13.794 32.841-37.201 32.841-4.011 0-7.697-.32-11.067-.962l-.643 1.131c9.141 7.727 15.396 10.139 23.092 10.139 9.625 0 18.922-4.028 23.575-10.142l5.296 42.665c-5.296 2.578-13.794 4.83-19.24 4.83-21.488 0-34.631-5.149-46.022-27.04zm23.408-43.624c0-6.765-5.293-10.624-12.992-10.624h-20.848v16.584c7.696 3.542 13.311 5.149 19.881 5.149 7.696 0 13.953-4.344 13.953-11.109z"/></svg>
